ui/StatusQ/src/assets/img/icons/communities/airdrop.svg

<svg fill="none" height="40" viewBox="0 0 40 40" width="40" xmlns="http://www.w3.org/2000/svg"><g fill="#4360df"><rect fill-opacity=".1" height="40" rx="20" width="40"/><path clip-rule="evenodd" d="m19.9991 10.25c-4.9474 0-9.0331 3.6842-9.6652 8.459-.1371 1.0356.2981 1.994.9429 2.6746l7.4519 7.8659c.6902.7286 1.8506.7286 2.5408 0l7.4519-7.8659c.6448-.6806 1.08-1.639.9429-2.6746-.6322-4.7748-4.7178-8.459-9.6652-8.459zm-7.3811 8.9046c-.463-.1389-.7574-.5993-.6457-1.0696.8633-3.6327 4.13-6.335 8.0268-6.335s7.1635 2.7023 8.0267 6.3349c.1118.4704-.1826.9308-.6456 1.0697-.1763.0529-.3291.0963-.3903.1075-1.3213.2402-3.5251.4879-6.9908.4879-3.4658 0-5.6696-.2477-6.9909-.4879-.0612-.0112-.2139-.0546-.3902-.1075zm.8656 1.7054c-.2391-.0353-.3947.2554-.2285.4308l4.5093 4.7598c.0762.0805.2073-.0043.1651-.1068l-1.751-4.2523c-.1445-.3509-.4752-.5886-.8533-.621-.6156-.0527-1.2304-.1201-1.8416-.2105zm8.5848 5.0841c-.0422.1025.0888.1873.1651.1069l4.5096-4.7602c.1662-.1755.0106-.4661-.2285-.4308-.6112.0904-1.2261.1578-1.8418.2105-.3781.0324-.7088.2701-.8533.621zm.1328-4.2621c.0914-.2221-.0774-.4645-.3175-.4577-.5851.0166-1.2125.0257-1.8846.0257-.6722 0-1.2997-.0091-1.8848-.0257-.2401-.0068-.4089.2356-.3175.4577l1.8971 4.6071c.1121.2725.498.2725.6102 0z" fill-rule="evenodd"/></g></svg>

<svg width="40" height="40" viewBox="0 0 40 40" fill="none" xmlns="http://www.w3.org/2000/svg">
<rect width="40" height="40" rx="20" fill="#4360DF" fill-opacity="0.1"/>
<path fill-rule="evenodd" clip-rule="evenodd" d="M19.9991 10.25C15.0517 10.25 10.966 13.9342 10.3339 18.709C10.1968 19.7446 10.632 20.703 11.2768 21.3836L18.7287 29.2495C19.4189 29.9781 20.5793 29.9781 21.2695 29.2495L28.7214 21.3836C29.3662 20.703 29.8014 19.7446 29.6643 18.709C29.0321 13.9342 24.9465 10.25 19.9991 10.25ZM12.618 19.1546C12.155 19.0157 11.8606 18.5553 11.9723 18.085C12.8356 14.4523 16.1023 11.75 19.9991 11.75C23.8959 11.75 27.1626 14.4523 28.0258 18.0849C28.1376 18.5553 27.8432 19.0157 27.3802 19.1546C27.2039 19.2075 27.0511 19.2509 26.9899 19.2621C25.6686 19.5023 23.4648 19.75 19.9991 19.75C16.5333 19.75 14.3295 19.5023 13.0082 19.2621C12.947 19.2509 12.7943 19.2075 12.618 19.1546ZM13.4836 20.86C13.2445 20.8247 13.0889 21.1154 13.2551 21.2908L17.7644 26.0506C17.8406 26.1311 17.9717 26.0463 17.9295 25.9438L16.1785 21.6915C16.034 21.3406 15.7033 21.1029 15.3252 21.0705C14.7096 21.0178 14.0948 20.9504 13.4836 20.86ZM22.0684 25.9441C22.0262 26.0466 22.1572 26.1314 22.2335 26.051L26.7431 21.2908C26.9093 21.1153 26.7537 20.8247 26.5146 20.86C25.9034 20.9504 25.2885 21.0178 24.6728 21.0705C24.2947 21.1029 23.964 21.3406 23.8195 21.6915L22.0684 25.9441ZM22.2012 21.682C22.2926 21.4599 22.1238 21.2175 21.8837 21.2243C21.2986 21.2409 20.6712 21.25 19.9991 21.25C19.3269 21.25 18.6994 21.2409 18.1143 21.2243C17.8742 21.2175 17.7054 21.4599 17.7968 21.682L19.6939 26.2891C19.806 26.5616 20.1919 26.5616 20.3041 26.2891L22.2012 21.682Z" fill="#4360DF"/>
</svg>
